X: 35480
T: Royal Chair
R: jig
M: 6/8
K: Dmajor
|:DFA dfb|agf f2 a|g2 g f2 f|e3 dAF|
DFA dfb|agf f2 a|gec Acd|1 edc dAF:|2 edc dfg|
|:a2 f aba|gec g3|f2 g fgf|ecd e3|
a2 f aba|gec g3|f2 B fgf|1 edc dAf:|2 edc dAF|D6||

